!!!COM: Bach, Johann Sebastian
!!!OPR: Joh. Seb. Bachs vierstimmige Choralgesänge
!!!XEN: Four-part Chorales
!!!OTL: 88. Heut' ist, o Mensch, ein grosser Trauertag
!!!SCT: BWV 341
!!!SCA: Thematisch-systematisches Verzeichnis der musikalischen Werke Johann Sebastian Bach: Bach-Werke-Verzeichnis (Schmieder)
!!!YOR: Bach Gesellschaft Edition xxxix
!!!ENC: Steven Rasmussen
!!!CDT: 1685/3//-1750/7/28/
!!!OCY: Deutschland
!!!YEC: Copyright (c) 1994, 2000 Center for Computer Assisted Research in the Humanities
!!!YEM: Rights to all derivative editions reserved
!!!YEN: United States of America
**kern	**kern	**kern	**kern	**silbe
*I:[BASSO]	*I:[TENORE]	*I:[ALTO]	*I:[SOPRANO]	*I:[SOPRANO]
*clefF4	*clefGv2	*clefG2	*clefG2	*
*k[b-]	*k[b-]	*k[b-]	*k[b-]	*
*d:	*d:	*d:	*d:	*
*M4/4	*M4/4	*M4/4	*M4/4	*
4GG	4G	4B-	4d	Heut'
=1	=1	=1	=1	=1
4D	8FL	(8A	4f	ist,
.	8AJ	4f)	.	.
8BB-L	8dL	.	4g	o
8CJ	8cJ	8e	.	.
4F;	4c;	4f;	4a;	Mensch,
4G	4G	8dL	4b-	ein
.	.	8eJ	.	.
=2	=2	=2	=2	=2
4D	(16ALL	4f#	4a	gro-
.	16B-JJ	.	.	.
.	4c)	.	.	.
4E	.	4g	4g	-sser
.	16B-LL	.	.	.
.	16AJJ	.	.	.
8EL	8GL	8gL	4cc	Trau-
8F#J	8dJ	8aJ	.	.
4G	4d	8aL	4b-	-er-
.	.	8gJ	.	.
=3	=3	=3	=3	=3
2D;	2d;	2f#;	2a;	-tag,
4r	4r	4r	4r	.
4BB-	4f	4b-	4dd	an
=4	=4	=4	=4	=4
4F	8.fL	8b-L	4cc	wel-
.	.	8aJ	.	.
.	16e-Jk	.	.	.
4G	4d	8aL	4b-	-chem
.	.	8gJ	.	.
4D	8.dL	8gL	4a	un-
.	.	8fJ	.	.
.	16cJk	.	.	.
4E-	4B-	8fL	4g	-ser
.	.	8e-J	.	.
=5	=5	=5	=5	=5
8BB-L	4B-	8e-L	4f	Hei-
8AAJ	.	8dJ	.	.
4GG	4B-	8e-L	4g	-land
.	.	8dJ	.	.
8AAL	4F	8cL	4f	gro-
8GGJ	.	8B-J	.	.
8AAL	4F	8cL	4e-	-sse
8FFJ	.	8AJ	.	.
=6	=6	=6	=6	=6
2BB-;	2F;	2B-;	2d;	Plag'
4r	4r	4r	4r	.
8FL	4F	4c	4a	er-
8E-J	.	.	.	.
=7	=7	=7	=7	=7
4D	4f	8dL	4b-	-lit-
.	.	8fJ	.	.
4C	4e-	8gL	4cc	-ten
.	.	8aJ	.	.
4BB-;	4f;	4b-;	4dd;	hat,
4BBn	4d	8gL	4dd	und
.	.	8fJ	.	.
=8	=8	=8	=8	=8
8CL	4G	8e-L	4cc	tot
8DJ	.	8fJ	.	.
4E-	4c	4g	8gL	dar-
.	.	.	8aJ	.
8BB-L	4d	4.g	4b-	-nie-
8CJ	.	.	.	.
4D	8dL	.	4a	-der
.	8cJ	8f#	.	.
=9	=9	=9	=9	=9
2.GG;	2.Bn;	2.d;	2.g;	lag.
==|!	==|!	==|!	==|!	==|!
*-	*-	*-	*-	*-
!!!RWG: Key is interpreted using the Humdrum key tool.
!!!END: 1994/06/10
!!!EMD: Converted from MuseData to Humdrum Dec 19, 2000, by Andreas Kornstaedt using muse2kern.
!!!EED: Craig Stuart Sapp
!!!EEV: 2024/03/31
!!!ONB: Some non-unicode characters
